lib/flags/l/430.svg

<svg xmlns="http://www.w3.org/2000/svg" fill="none" viewBox="0 0 32 24"><mask id="430_svg__a" width="32" height="24" x="0" y="0" mask-type="alpha" maskUnits="userSpaceOnUse"><path fill="#fff" d="M0 0H32V24H0z"/></mask><g mask="url(#430_svg__a)"><path fill="#F7FCFF" fill-rule="evenodd" d="M0 0H32V24H0V0Z" clip-rule="evenodd"/><path fill="#E31D1C" d="M.027 5.5H32.027V8.5H.027z"/><path fill="#E31D1C" fill-rule="evenodd" d="M0 0H32V3H0V0Z" clip-rule="evenodd"/><path fill="#E31D1C" d="M-.059 11H31.941V14H-.059z"/><path fill="#E31D1C" d="M.112 16.4H32.112V19.4H.112z"/><path fill="#E31D1C" d="M.102 21.5H32.102V24.5H.102z"/><path fill="#3D58DB" fill-rule="evenodd" d="M0 0H16V14H0V0Z" clip-rule="evenodd"/><path fill="#F7FCFF" fill-rule="evenodd" d="M8.13247 9.21309L5.2111 11.2394L6.14459 7.7688L4 5.55178L6.90389 5.43191L8.13247 2L9.36105 5.43191H12.26L10.1204 7.7688L11.1919 11.0346L8.13247 9.21309Z" clip-rule="evenodd"/></g></svg>

<svg xmlns="http://www.w3.org/2000/svg" fill="none" viewBox="0 0 32 24"><mask id="430_svg__a" width="32" height="24" x="0" y="0" maskUnits="userSpaceOnUse"><path fill="#fff" d="M0 0h32v24H0z"/></mask><g mask="url(#430_svg__a)"><path fill="#F7FCFF" fill-rule="evenodd" d="M0 0h32v24H0V0z" clip-rule="evenodd"/><path fill="#E31D1C" d="M.027 5.5h32v3h-32z"/><path fill="#E31D1C" fill-rule="evenodd" d="M0 0h32v3H0V0z" clip-rule="evenodd"/><path fill="#E31D1C" d="M-.059 11h32v3h-32zm.171 5.4h32v3h-32zm-.01 5.1h32v3h-32z"/><path fill="#3D58DB" fill-rule="evenodd" d="M0 0h16v14H0V0z" clip-rule="evenodd"/><path fill="#F7FCFF" fill-rule="evenodd" d="M8.132 9.213l-2.92 2.026.933-3.47L4 5.552l2.904-.12L8.132 2l1.23 3.432h2.898l-2.14 2.337 1.072 3.266-3.06-1.822z" clip-rule="evenodd"/></g></svg>
